assets/sonr-icons/social-linkedin.svg

<svg xmlns="http://www.w3.org/2000/svg" width="24" height="24" fill="none"><path fill="currentColor" d="M20.47 2H3.51a1.45 1.45 0 0 0-1.45 1.429v17.14a1.45 1.45 0 0 0 1.45 1.43h16.981c.793 0 1.438-.638 1.45-1.429V3.43A1.45 1.45 0 0 0 20.491 2h-.021M8.09 18.74h-3v-9h3zM6.59 8.48a1.56 1.56 0 1 1 0-3.12 1.57 1.57 0 1 1-.008 3.12zm12.32 10.26h-3v-4.83c0-1.21-.43-2-1.52-2a1.65 1.65 0 0 0-1.536 1.079L12.85 13a2 2 0 0 0-.101.734v-.005 5h-3v-9h3v1.27a3 3 0 0 1 2.715-1.5h-.005c2 0 3.45 1.29 3.45 4.06z"/></svg>

<svg xmlns="http://www.w3.org/2000/svg" width="24" height="24" fill="none" viewBox="0 0 24 24"><path fill="#000" d="M20.47 2H3.53C3.524 2 3.517 2 3.51 2C2.717 2 2.071 2.638 2.06 3.429V20.569C2.071 21.361 2.716 21.999 3.51 21.999C3.517 21.999 3.524 21.999 3.531 21.999H20.471C20.477 21.999 20.484 21.999 20.491 21.999C21.284 21.999 21.929 21.361 21.941 20.57V3.43C21.93 2.638 21.285 2 20.491 2C20.484 2 20.477 2 20.471 2H20.47ZM8.09 18.74H5.09V9.74H8.09V18.74ZM6.59 8.48C5.728 8.48 5.03 7.782 5.03 6.92C5.03 6.058 5.728 5.36 6.59 5.36C6.643 5.354 6.705 5.35 6.767 5.35C7.634 5.35 8.337 6.053 8.337 6.92C8.337 7.787 7.634 8.49 6.767 8.49C6.705 8.49 6.643 8.486 6.582 8.48L6.59 8.481V8.48ZM18.91 18.74H15.91V13.91C15.91 12.7 15.48 11.91 14.39 11.91C13.684 11.915 13.085 12.363 12.854 12.989L12.85 13C12.785 13.188 12.747 13.406 12.747 13.631C12.747 13.665 12.748 13.7 12.749 13.734V13.729V18.729H9.749C9.749 18.729 9.749 10.549 9.749 9.729H12.749V10.999C13.277 10.094 14.243 9.497 15.348 9.497C15.387 9.497 15.426 9.498 15.464 9.499H15.459C17.459 9.499 18.909 10.789 18.909 13.559L18.91 18.74Z"/></svg>
